icon-themes/HighContrast-SVG/scalable/actions/edit-find.svg

<?xml version="1.0" encoding="UTF-8" standalone="no"?>
<!-- Generator: Adobe Illustrator 9.0, SVG Export Plug-In  -->
<svg
   xmlns:dc="http://purl.org/dc/elements/1.1/"
   xmlns:cc="http://creativecommons.org/ns#"
   xmlns:rdf="http://www.w3.org/1999/02/22-rdf-syntax-ns#"
   xmlns:svg="http://www.w3.org/2000/svg"
   xmlns="http://www.w3.org/2000/svg"
   xmlns:sodipodi="http://sodipodi.sourceforge.net/DTD/sodipodi-0.dtd"
   xmlns:inkscape="http://www.inkscape.org/namespaces/inkscape"
   width="48pt"
   height="48pt"
   viewBox="0 0 48 48"
   xml:space="preserve"
   id="svg2"
   sodipodi:version="0.32"
   inkscape:version="0.46"
   sodipodi:docname="edit-find.svg"
   inkscape:output_extension="org.inkscape.output.svg.inkscape"><metadata
   id="metadata27"><rdf:RDF><cc:Work
       rdf:about=""><dc:format>image/svg+xml</dc:format><dc:type
         rdf:resource="http://purl.org/dc/dcmitype/StillImage" /></cc:Work></rdf:RDF></metadata><defs
   id="defs25" /><sodipodi:namedview
   inkscape:window-height="480"
   inkscape:window-width="640"
   inkscape:pageshadow="2"
   inkscape:pageopacity="0.0"
   guidetolerance="10.0"
   gridtolerance="10.0"
   objecttolerance="10.0"
   borderopacity="1.0"
   bordercolor="#666666"
   pagecolor="#ffffff"
   id="base" />
	<g
   id="Layer_x0020_3"
   style="fill-rule:nonzero;clip-rule:nonzero;fill:#FFFFFF;stroke:#000000;stroke-miterlimit:4;">
		<g
   style="stroke:none;"
   id="g5">
			<path
   style="fill:none;stroke:#FFFFFF;stroke-width:6.9612;"
   d="M37.9,38.8L30.1,31c-0.7-0.7-1.8-0.9-2.7-0.6c1.8-2.2,2.9-5,2.9-8c0-6.9-5.6-12.5-12.5-12.5S5.2,15.4,5.2,22.3c0,6.9,5.6,12.5,12.5,12.5c3,0,5.8-1.1,8-2.9c-0.3,0.9-0.1,2,0.6,2.7l7.8,7.8c1,1,2.7,1,3.7,0s1-2.7,0-3.7z M17.8,31.5     c-5.1,0-9.2-4.1-9.2-9.2c0-5.1,4.1-9.2,9.2-9.2c5.1,0,9.2,4.1,9.2,9.2c0,5.1-4.1,9.2-9.2,9.2z"
   id="path7" />
			<path
   style="fill:none;stroke:#FFFFFF;stroke-width:13.245;stroke-linejoin:round;"
   d="M38.3,17.1v20.6H13V8.5h16.9l8.3,8.5z"
   id="path9" />
			<path
   style="fill:none;stroke:#000000;stroke-width:6.6225;stroke-linejoin:round;"
   d="M38.3,17.1v20.6H13V8.5h16.9l8.3,8.5z"
   id="path11" />
			<path
   d="M38.3,17.1v20.6H13V8.5h16.9l8.3,8.5z"
   id="path13" />
			<g
   id="g15">
				<path
   style="fill:#000000;"
   d="M38,38.9l-7.8-7.8c-0.7-0.7-1.8-0.9-2.7-0.6c1.8-2.2,2.9-5,2.9-8c0-6.9-5.6-12.5-12.5-12.5c-6.9,0-12.5,5.6-12.5,12.5c0,6.9,5.6,12.5,12.5,12.5c3,0,5.8-1.1,8-2.9c-0.3,0.9-0.1,2,0.6,2.7l7.8,7.8c1,1,2.7,1,3.7,0c1-1,1-2.7,0-3.7z       M17.9,31.6c-5.1,0-9.2-4.1-9.2-9.2c0-5.1,4.1-9.2,9.2-9.2c5.1,0,9.2,4.1,9.2,9.2c0,5.1-4.1,9.2-9.2,9.2z"
   id="path17" />
				<path
   d="M27.1,22.4c0,5.1-4.1,9.2-9.2,9.2c-5.1,0-9.2-4.1-9.2-9.2c0-5.1,4.1-9.2,9.2-9.2c5.1,0,9.2,4.1,9.2,9.2z"
   id="path19" />
			</g>
		</g>
	</g>
	<g
   id="crop_x0020_marks"
   style="fill-rule:nonzero;clip-rule:nonzero;stroke:#000000;stroke-miterlimit:4;">
		<path
   style="fill:none;stroke:none;"
   d="M48,48H0V0h48v48z"
   id="path22" />
	</g>
</svg>

<?xml version="1.0" encoding="UTF-8" standalone="no"?>
<!-- Generator: Adobe Illustrator 9.0, SVG Export Plug-In  -->
<svg
   xmlns:dc="http://purl.org/dc/elements/1.1/"
   xmlns:cc="http://creativecommons.org/ns#"
   xmlns:rdf="http://www.w3.org/1999/02/22-rdf-syntax-ns#"
   xmlns:svg="http://www.w3.org/2000/svg"
   xmlns="http://www.w3.org/2000/svg"
   xmlns:sodipodi="http://sodipodi.sourceforge.net/DTD/sodipodi-0.dtd"
   xmlns:inkscape="http://www.inkscape.org/namespaces/inkscape"
   width="48"
   height="48"
   viewBox="0 0 48 48"
   xml:space="preserve"
   id="svg2"
   sodipodi:version="0.32"
   inkscape:version="0.46"
   sodipodi:docname="edit-find.svg"
   inkscape:output_extension="org.inkscape.output.svg.inkscape"
   version="1.0"><metadata
   id="metadata27"><rdf:RDF><cc:Work
       rdf:about=""><dc:format>image/svg+xml</dc:format><dc:type
         rdf:resource="http://purl.org/dc/dcmitype/StillImage" /></cc:Work></rdf:RDF></metadata><defs
   id="defs25"><inkscape:perspective
     sodipodi:type="inkscape:persp3d"
     inkscape:vp_x="0 : 30 : 1"
     inkscape:vp_y="0 : 1000 : 0"
     inkscape:vp_z="60 : 30 : 1"
     inkscape:persp3d-origin="30 : 20 : 1"
     id="perspective17" /></defs><sodipodi:namedview
   inkscape:window-height="550"
   inkscape:window-width="1023"
   inkscape:pageshadow="2"
   inkscape:pageopacity="0.0"
   guidetolerance="10.0"
   gridtolerance="10.0"
   objecttolerance="10.0"
   borderopacity="1.0"
   bordercolor="#666666"
   pagecolor="#ffffff"
   id="base"
   showgrid="true"
   inkscape:object-paths="true"
   inkscape:object-nodes="true"
   inkscape:zoom="16.17765"
   inkscape:cx="29.096841"
   inkscape:cy="29.070248"
   inkscape:window-x="0"
   inkscape:window-y="25"
   inkscape:current-layer="svg2"><inkscape:grid
     type="xygrid"
     id="grid2390"
     visible="true"
     enabled="true" /></sodipodi:namedview>
	<g
   id="Layer_x0020_3"
   style="fill:#ffffff;fill-rule:nonzero;stroke:#000000;stroke-miterlimit:4">
		<g
   style="stroke:none"
   id="g5">
			<path
   style="fill:none;stroke:#ffffff;stroke-width:6.96120024"
   d="M 37.9,38.8 L 30.1,31 C 29.4,30.3 28.3,30.1 27.4,30.4 C 29.2,28.2 30.3,25.4 30.3,22.4 C 30.3,15.5 24.7,9.9 17.8,9.9 C 10.9,9.9 5.2,15.4 5.2,22.3 C 5.2,29.2 10.8,34.8 17.7,34.8 C 20.7,34.8 23.5,33.7 25.7,31.9 C 25.4,32.8 25.6,33.9 26.3,34.6 L 34.1,42.4 C 35.1,43.4 36.8,43.4 37.8,42.4 C 38.8,41.4 38.8,39.7 37.8,38.7 L 37.9,38.8 z M 17.8,31.5 C 12.7,31.5 8.6,27.4 8.6,22.3 C 8.6,17.2 12.7,13.1 17.8,13.1 C 22.9,13.1 27,17.2 27,22.3 C 27,27.4 22.9,31.5 17.8,31.5 z"
   id="path7" />
			<path
   style="fill:none;stroke:#ffffff;stroke-width:13.24499989;stroke-linejoin:round"
   d="M 38.3,17.1 L 38.3,37.7 L 13,37.7 L 13,8.5 L 29.9,8.5 L 38.2,17 L 38.3,17.1 z"
   id="path9" />
			<path
   style="fill:none;stroke:#000000;stroke-width:6.62249994;stroke-linejoin:round"
   d="M 38.3,17.1 L 38.3,37.7 L 13,37.7 L 13,8.5 L 29.9,8.5 L 38.2,17 L 38.3,17.1 z"
   id="path11" />
			<path
   d="M 38.3,17.1 L 38.3,37.7 L 13,37.7 L 13,8.5 L 29.9,8.5 L 38.2,17 L 38.3,17.1 z"
   id="path13" />
			<g
   id="g15">
				<path
   style="fill:#000000"
   d="M 38,38.9 L 30.2,31.1 C 29.5,30.4 28.4,30.2 27.5,30.5 C 29.3,28.3 30.4,25.5 30.4,22.5 C 30.4,15.6 24.8,10 17.9,10 C 11,10 5.4,15.6 5.4,22.5 C 5.4,29.4 11,35 17.9,35 C 20.9,35 23.7,33.9 25.9,32.1 C 25.6,33 25.8,34.1 26.5,34.8 L 34.3,42.6 C 35.3,43.6 37,43.6 38,42.6 C 39,41.6 39,39.9 38,38.9 z M 17.9,31.6 C 12.8,31.6 8.7,27.5 8.7,22.4 C 8.7,17.3 12.8,13.2 17.9,13.2 C 23,13.2 27.1,17.3 27.1,22.4 C 27.1,27.5 23,31.6 17.9,31.6 z"
   id="path17" />
				<path
   d="M 27.1,22.4 C 27.1,27.5 23,31.6 17.9,31.6 C 12.8,31.6 8.7,27.5 8.7,22.4 C 8.7,17.3 12.8,13.2 17.9,13.2 C 23,13.2 27.1,17.3 27.1,22.4 z"
   id="path19" />
			</g>
		</g>
	</g>
	<g
   id="crop_x0020_marks"
   style="fill-rule:nonzero;stroke:#000000;stroke-miterlimit:4">
		<path
   style="fill:none;stroke:none"
   d="M 48,48 L 0,48 L 0,0 L 48,0 L 48,48 z"
   id="path22" />
	</g>
</svg>
